components/SocialProfiles/images/facebook.svg

<?xml version="1.0" encoding="UTF-8" standalone="no"?>
<svg width="16px" height="30px" viewBox="0 0 16 30" version="1.1" xmlns="http://www.w3.org/2000/svg" xmlns:xlink="http://www.w3.org/1999/xlink">
    <!-- Generator: Sketch 3.7 (28169) - http://www.bohemiancoding.com/sketch -->
    <title>Shape</title>
    <desc>Created with Sketch.</desc>
    <defs>
        <filter x="-50%" y="-50%" width="200%" height="200%" filterUnits="objectBoundingBox" id="filter-1">
            <feOffset dx="0" dy="0" in="SourceAlpha" result="shadowOffsetOuter1"></feOffset>
            <feGaussianBlur stdDeviation="20" in="shadowOffsetOuter1" result="shadowBlurOuter1"></feGaussianBlur>
            <feColorMatrix values="0 0 0 0 0   0 0 0 0 0   0 0 0 0 0  0 0 0 0.147956295 0" type="matrix" in="shadowBlurOuter1" result="shadowMatrixOuter1"></feColorMatrix>
            <feMerge>
                <feMergeNode in="shadowMatrixOuter1"></feMergeNode>
                <feMergeNode in="SourceGraphic"></feMergeNode>
            </feMerge>
        </filter>
    </defs>
    <g id="Desktop-design" stroke="none" stroke-width="1" fill="none" fill-rule="evenodd">
        <g id="Help-page" transform="translate(-691.000000, -2459.000000)" fill="#39559F">
            <g id="Group-22" filter="url(#filter-1)" transform="translate(99.000000, 30.000000)">
                <g id="Group-20" transform="translate(206.000000, 2351.000000)">
                    <g id="Group-23" transform="translate(359.000000, 0.000000)">
                        <g id="Group-17" transform="translate(0.000000, 53.000000)">
                            <g id="facebook-f" transform="translate(27.000000, 25.000000)">
                                <path d="M15.054688,0.651169655 L15.054688,5.22321414 L12.426339,5.22321414 C11.466518,5.22321414 10.819196,5.43103448 10.484375,5.84667517 C10.149554,6.26231483 9.982143,6.88577586 9.982143,7.71705621 L9.982143,10.9902248 L14.887277,10.9902248 L14.234375,16.1164562 L9.982143,16.1164562 L9.982143,29.2610834 L4.859375,29.2610834 L4.859375,16.1164562 L0.590402,16.1164562 L0.590402,10.9902248 L4.859375,10.9902248 L4.859375,7.21482414 C4.859375,5.06734966 5.439732,3.40190069 6.600446,2.21848034 C7.761161,1.03506 9.30692,0.44334931 11.237723,0.44334931 C12.878348,0.44334931 14.15067,0.512623448 15.054688,0.651169655 L15.054688,0.651169655 Z" id="Shape"></path>
                            </g>
                        </g>
                    </g>
                </g>
            </g>
        </g>
    </g>
</svg>

<svg width="16" height="30" viewBox="0 0 16 30" xmlns="http://www.w3.org/2000/svg"><title>Shape</title><desc>Created with Sketch.</desc><path d="M15.055.651v4.572h-2.628c-.96 0-1.607.208-1.942.623-.335.416-.502 1.039-.502 1.87v3.273h4.905l-.653 5.126h-4.252v13.145h-5.123v-13.145h-4.269v-5.126h4.269v-3.775c0-2.147.58-3.813 1.741-4.996 1.161-1.183 2.706-1.775 4.637-1.775 1.641 0 2.913.069 3.817.208z" fill="#39559F"/></svg>
